X:215
T: Laverty's
S: "First Collection of Traditional Irish Music" (M.Mulvihill)
Z: B.Black
L: 1/8
M: 4/4
R: reel
K: Edor
B2 AF dFAF|EDEF EDB,D|B2 AF dFAF|DFAF FE (3EDE|
B2 AF dFAF|EDEF EDB,A,|B,E (3EDE DEFA|dBAF FE E2 :|
eB (3BAB egfe|fd (3dcd Adfd|eB (3BAB egfe|dBAF FE E2|
eB (3BAB egfe|fd (3dcd Adfd|BABd egfe|dBAF FE E2 :|
